X:2
T:I Could Write A Book
C:Richard Rodgers & Lorenz Hart
L:1/4
M:C
I:linebreak $
K:Db
"Ab7" z2"D7" F G ||"Db" A2"Bbm" c2 |"Ebm" B A"Ebo" F E |"Fm" F2"E7" z2 |$"Ebm" z A"D7" F E |
"Db" F A"Ebm" F E |"Fm" F d"Eo" z F |"Ebm" A4 |$"Ab7" z2"Eo" B c |"Bbm" d2"Eo" d2 |
"Ebm" d e"Ab7" z c ||1$"Gø" B2"Gb7" B2 |"Fm" A2"Fo" F =G |"Fm" A2"Fo" A2 |
"Bbm" A B"Eb7" z =G |"Ebm" A4 :|2$"Abm" =B2"G7" =B2 |"Gb" B2"Gbm" A G |"Fm" F2"E7" F2 |
"Ebm" E d"D7" z c |"Db6" d4 |]

